table-question.svg

<svg fill="currentColor" viewBox="0 0 24 24"><path d="M19.5 20.5V22H18v-1.5zm-2-5H16V15c0-1.66 1.34-3 3-3s3 1.34 3 3c0 .97-.5 1.88-1.29 2.41l-.3.19c-.57.4-.91 1.01-.91 1.7v.2H18v-.2c0-1.19.6-2.3 1.59-2.95l.29-.19c.39-.26.62-.69.62-1.16 0-.83-.67-1.5-1.5-1.5s-1.5.67-1.5 1.5zM18 3H4c-1.1 0-2 .9-2 2v12c0 1.1.9 2 2 2h10v-2h-2v-4h2.42c.36-.8.92-1.5 1.61-2H12V7h6v3.1c.32-.06.66-.1 1-.1s.68.04 1 .1V5a2 2 0 0 0-2-2m-8 14H4v-4h6zm0-6H4V7h6z"/></svg>

<svg  viewBox="0 0 24 24" fill="currentColor"><path  d="M19.5 20.5V22H18V20.5H19.5M17.5 15.5H16V15C16 13.34 17.34 12 19 12S22 13.34 22 15C22 15.97 21.5 16.88 20.71 17.41L20.41 17.6C19.84 18 19.5 18.61 19.5 19.3V19.5H18V19.3C18 18.11 18.6 17 19.59 16.35L19.88 16.16C20.27 15.9 20.5 15.47 20.5 15C20.5 14.17 19.83 13.5 19 13.5S17.5 14.17 17.5 15V15.5M18 3H4C2.9 3 2 3.9 2 5V17C2 18.1 2.9 19 4 19H14V17H12V13H14.42C14.78 12.2 15.34 11.5 16.03 11H12V7H18V10.1C18.32 10.04 18.66 10 19 10S19.68 10.04 20 10.1V5C20 3.9 19.11 3 18 3M10 17H4V13H10V17M10 11H4V7H10V11Z"/></svg>
